X:1
T:Rompi o mio core
T:Rompi o mio core
T:Domenico Obizzi
T:Arietta
T:Source : Madrigali et arie a voce sola---Libro I ---Venetia---A.Vincenti---1627. Editor : André Vierendeels (05/03/16).
T:Notes : Original clefs : C1, F4 Editorial accidentals above the staff Note values have been halved Dotted brackets indicate black notes Notation in original print : "Alfabeto d'ariette per la Chitarra alla Spagnola", realised by the editor.  
T:©
T:©
T:©
C:Domenico Obizzi
Z:©
%%score 1 { ( 2 3 ) | 4 }
L:1/8
Q:1/4=138
M:3/2
K:F
V:1 treble nm="Soprano" snm="S"
V:2 treble nm="BC" snm="BC"
V:3 treble 
V:4 bass 
V:1
 z4 c4 A4 | d4 c6 d2 | B8 c4 | A12 | A4 G4 F4 | G2 F2 G2 A2 B4 | A4 G8 | F12 | A4 G4 F4 | %9
w: Rom- pi,|rom- pi'o mio|co- *|re,|quell' a- mo-|ro- * * * *|so lac-|cio,|gia si so-|
w: Spe- gni,|spe- gni quel|fo- *|co,|on- de si|dol- * * * *|ce'ar- de-|sti,|per duo lumi|
w: Non mi-|ra- te piu|ma- *|i,|il suo leg-|gia- * * * *|dro vi-|so,|già vo- stro|
w: E se|l'em- pia mia|sor- *|te,|vuol che sol|co _ _ _ _|mo- ri-|re,|sciol- ga'il mo-|
 G2 F2 G2 A2 B4 | c2 B2 A8 | G12 | G4 D4 E4 | F8 E4 | D6 E2 F4 | G4 G8 | F12 :: C4 F4 G4 | %18
w: a- * * * *|ve im- pac-|cio,|on- de t'av-|vin- se'il|tuo ni- mi-|co'A- mo-|re,|poi che si|
w: ce- * * * *|le- * *|st'il|tuo'in- * cen-|dio'il tuo|mal pre- cen-|do'in gioc-|co,|po- scia che|
w: pa- * * * *|ra- * di-|so,|o sen- za|pre- mio|la- gri- mo-|si ra-|i,|poi che non|
w: do _ _ _ _|d'A- * *|mor,|sciol- ga'il no-|do d'A-|mor col- po|di mor-|te,|che mo- ri-|
 A4 B2 A2 G2 F2 | G8 G4 | z4 G4 A4 | B4 c4 B4 | A6 B2 c4 | B4 A8 | G4 D4 E4 | F4 E4 F4 | %26
w: cru- da'e _ _ _|ri- a,|non co-|no- sce pie-|ta la Don-|na mi-|a, non co-|no- sce pie-|
w: già mai _ _ _|fi- a,|che si|mo- v'a pie-|tà la Don-|na mi-|a, che si|mo- v'a pie-|
w: è che _ _ _|sti- a,|pie- tà|nel- per- to|del- la Don-|na mi-|a, pie- tà|nel per- to|
w: ro ben _ _ _|pri- a,|c'hab- bia|pie- tà di|me la Don-|na mi-|a, c'hab- bia|pie- ta di|
 D2 C2 D2 E2 F2 G2 | A2 E2 F2 G2 A2 B2 | c6 c2 B4 | A4 G8 | F12 :| %31
w: ta _ _ _ _ _|_ _ _ _ _ _|* la Don-|na mi-|a.|
w: tà _ _ _ _ _|_ _ _ _ _ _|* la Don-|na mi-|a.|
w: del- * * * * *||* la Don-|na mi-|a.|
w: me _ _ _ _ _|_ _ _ _ _ _|* la Don-|na mi-|a.|
V:2
 c12 | d4 c8 | G12 | A12 | c12 | G8 d4- | d4 e8 | c12 | c12 | c8 B4 | G8 F4 | G12 | G12 | c12 | %14
 B8 c4 | d4 c4 G4 | A12 :: c12 | A12 | c12 | G12 | B4 G8 | A8 G4- | G4 A8 | B12 | c12 | B4 G8 | %27
 F4 B8 | c8 d4 | c12 | A12 :| %31
V:3
 A12 | F12 | D4 C8 | C12 | F12 | E8 F4- | F4 G8 | A12 | F12 | _E8 D4 | _E4 D8 | B,12 | D12 | F12 | %14
 F8 F4- | F4 E8 | C12 :: A8 G4 | F12 | E12 | E12 | D4 E8 | F8 _E4- | E4 D8 | D12 | F12 | D12 | %27
 C4 D8 | A8 F4 | A4 F4 E4 | F12 :| %31
V:4
 F,8 F,4 | B,4 A,4 F,4 | G,4 E,8 | F,12 | F,4 E,4 D,4 | C,8 B,,4- | B,,4 C,8 | F,,8 F,,4 | %8
 F,4 _E,4 D,4 | C,4 B,,2 A,,2 G,,4 | C,4 D,8 | G,,12 | G,,8 G,,4 | A,,8 A,,4 | B,,8 A,,4 | %15
 B,,4 C,8 | F,,12 :: F,8 E,4 | F,4 D,8 | C,8 C,4 | C,4 B,,4 A,,4 | G,,4 C,8 | D,8 C,4- | C,4 D,8 | %24
 G,,8 G,,4 | A,,8 A,,4 | B,,8 B,,4 | A,,4 G,,8 | F,,8 B,,4 | F,,4 C,8 | F,,12 :| %31

